__todo__/stylefmt.svg

<svg height="154" preserveAspectRatio="xMidYMid" viewBox="0 0 256 154" width="256" xmlns="http://www.w3.org/2000/svg"><path d="m178.903752 2.85667802-2.108674-1.41695569c-1.930121-1.26427134-4.279327-1.72054484-6.542374-1.27068929h-.073133c-2.232161.47577847-4.189128 1.80704115-5.45147 3.70846251l-89.8928877 134.55289245c-1.2605408 1.917971-1.716899 4.254481-1.2706893 6.505808v.118841c.476927 2.222005 1.8090518 4.167104 3.7084625 5.414904l2.1086739 1.380389c1.9263925 1.277563 4.2823769 1.735049 6.5469018 1.271279 2.264525-.463771 4.2509931-1.810582 5.5200756-3.742572l89.8928872-134.5163259c1.261202-1.9313667 1.717232-4.2793214 1.27069-6.54237385-.452735-2.24514068-1.789097-4.21399547-3.708463-5.46365923zm-1.453522 9.44637118-10.686589 15.9917924-8.794266-5.8140892 10.686588-15.95522569c.586348-.88623029 1.502312-1.50162665 2.544426-1.70948847 1.04298-.21281291 2.12779-.00352126 3.016744.58201836l2.108674 1.41695568c.88623.5863477 1.501627 1.50231198 1.709488 2.5444258.205543 1.02093962-.005071 2.08168882-.585065 2.94665842zm-126.3375973 105.8785858c-1.1757135.004145-2.3175326-.393664-3.236144-1.127471l-45.86975032-36.2374984c-1.2664981-.9892307-2.00673838-2.506697-2.00673838-4.1137423-0-1.6070454.74024028-3.1245117 2.00673838-4.1137423l45.83318372-36.2953961c2.2719572-1.8066266 5.5783026-1.4294017 7.3849293.8425554 1.8066266 2.2719571 1.4294017 5.5783026-.8425554 7.3849293l-40.6346324 32.1877481 40.5980658 32.0841423c1.7627342 1.381289 2.4560298 3.728175 1.7268545 5.845601-.7291754 2.117426-2.7204911 3.539815-4.9599512 3.542874zm153.8143483 0c-2.238901-.004354-4.229027-1.4272-4.957406-3.544311-.72838-2.117111-.034941-4.463221 1.727357-5.844164l40.595018-32.0841423-40.634632-32.2121259c-1.469699-1.1621505-2.207756-3.0200968-1.936154-4.8739684.271603-1.8538716 1.511603-3.4220214 3.252904-4.1137424s3.719359-.4019244 5.189057.7602262l45.830137 36.3350098c1.266498.9892307 2.006738 2.506697 2.006738 4.1137423 0 1.6070454-.74024 3.1245117-2.006738 4.1137424l-45.830137 36.1887433c-.915698.743042-2.056932 1.152468-3.236144 1.16099z"/><path d="m114.102423 45.0371496c2.864038-7.8685035 5.223373-10.1913539 13.091876-13.0918764-7.868503-2.864038-10.176152-5.223373-13.091876-13.0888361-2.864038 7.8685035-5.223373 10.1913539-13.091877 13.0918764 7.871544 2.8974822 10.191354 5.2203326 13.091877 13.0888361z" fill="#1c96d4"/><path d="m81.7193349 89.5331116c5.0044656-13.6361045 9.0299288-17.6615677 22.6660331-22.6660332-13.6361043-5.0044656-17.6615675-9.0299288-22.6660331-22.6660333-5.0044655 13.6361045-9.0299287 17.6615677-22.6660332 22.6660333 13.6361045 4.967981 17.6980522 9.0299287 22.6660332 22.6660332z" fill="#c61a41"/><path d="m170.24 110.493492c3.627173-9.899478 6.564181-12.8000003 16.418052-16.4180526-9.899477-3.6271734-12.8-6.5641805-16.418052-16.4180522-3.627173 9.8994774-6.564181 12.8-16.418052 16.4180522 9.853871 3.6180523 12.790879 6.5672206 16.418052 16.4180526z" fill="#eeb034"/></svg>

<?xml version="1.0" encoding="UTF-8"?>
<svg width="256px" height="154px" viewBox="0 0 256 154" version="1.1" xmlns="http://www.w3.org/2000/svg" xmlns:xlink="http://www.w3.org/1999/xlink" preserveAspectRatio="xMidYMid">
    <g>
        <path d="M178.903752,2.85667802 L176.795078,1.43972233 L176.795078,1.43972233 C174.864957,0.175450987 172.515751,-0.28082251 170.252704,0.169033043 L170.179571,0.169033043 C167.94741,0.64481151 165.990443,1.97607419 164.728101,3.87749555 L74.8352133,138.430388 L74.8352133,138.430388 C73.5746725,140.348359 73.1183143,142.684869 73.564524,144.936196 L73.564524,144.936196 L73.564524,145.055037 L73.564524,145.055037 C74.041451,147.277042 75.3735758,149.222141 77.2729865,150.469941 L79.3816604,151.85033 C81.3080529,153.127893 83.6640373,153.585379 85.9285622,153.121609 C88.1930872,152.657838 90.1795553,151.311027 91.4486378,149.379037 L181.341525,14.8627111 L181.341525,14.8627111 C182.602727,12.9313444 183.058757,10.5833897 182.612215,8.32033725 C182.15948,6.07519657 180.823118,4.10634178 178.903752,2.85667802 Z M177.45023,12.3030492 L166.763641,28.2948416 L157.969375,22.4807524 L168.655963,6.52552671 C169.242311,5.63929642 170.158275,5.02390006 171.200389,4.81603824 C172.243369,4.60322533 173.328179,4.81251698 174.217133,5.3980566 L176.325807,6.81501228 C177.212037,7.40135998 177.827434,8.31732426 178.035295,9.35943808 C178.240838,10.3803777 178.030224,11.4411269 177.45023,12.3060965 L177.45023,12.3030492 Z M51.1126327,118.181635 C49.9369192,118.18578 48.7951001,117.787971 47.8764887,117.054164 L2.00673838,80.8166656 C0.740240282,79.8274349 1.48855958e-15,78.3099686 0,76.7029233 C-1.62388317e-15,75.0958779 0.740240282,73.5784116 2.00673838,72.589181 L47.8399221,36.2937849 C50.1118793,34.4871583 53.4182247,34.8643832 55.2248514,37.1363403 C57.031478,39.4082974 56.6542531,42.7146429 54.382296,44.5212696 L13.7476636,76.7090177 L54.3457294,108.79316 C56.1084636,110.174449 56.8017592,112.521335 56.0725839,114.638761 C55.3434085,116.756187 53.3520928,118.178576 51.1126327,118.181635 Z M204.926981,118.181635 C202.68808,118.177281 200.697954,116.754435 199.969575,114.637324 C199.241195,112.520213 199.934634,110.174103 201.696932,108.79316 L242.29195,76.7090177 L201.657318,44.4968918 C200.187619,43.3347413 199.449562,41.476795 199.721164,39.6229234 C199.992767,37.7690518 201.232767,36.200902 202.974068,35.509181 C204.715369,34.81746 206.693427,35.1072566 208.163125,36.2694072 L253.993262,72.604417 C255.25976,73.5936477 256,75.111114 256,76.7181593 C256,78.3252047 255.25976,79.842671 253.993262,80.8319017 L208.163125,117.020645 C207.247427,117.763687 206.106193,118.173113 204.926981,118.181635 Z" fill="#000000"></path>
        <path d="M114.102423,45.0371496 C116.966461,37.1686461 119.325796,34.8457957 127.194299,31.9452732 C119.325796,29.0812352 117.018147,26.7219002 114.102423,18.8564371 C111.238385,26.7249406 108.87905,29.047791 101.010546,31.9483135 C108.88209,34.8457957 111.2019,37.1686461 114.102423,45.0371496 Z" fill="#1C96D4"></path>
        <path d="M81.7193349,89.5331116 C86.7238005,75.8970071 90.7492637,71.8715439 104.385368,66.8670784 C90.7492637,61.8626128 86.7238005,57.8371496 81.7193349,44.2010451 C76.7148694,57.8371496 72.6894062,61.8626128 59.0533017,66.8670784 C72.6894062,71.8350594 76.7513539,75.8970071 81.7193349,89.5331116 Z" fill="#C61A41"></path>
        <path d="M170.24,110.493492 C173.867173,100.594014 176.804181,97.6934917 186.658052,94.0754394 C176.758575,90.448266 173.858052,87.5112589 170.24,77.6573872 C166.612827,87.5568646 163.675819,90.4573872 153.821948,94.0754394 C163.675819,97.6934917 166.612827,100.64266 170.24,110.493492 Z" fill="#EEB034"></path>
    </g>
</svg>
